icons/android-light.svg

<svg width="256" height="256" viewBox="0 0 256 256" fill="none" xmlns="http://www.w3.org/2000/svg">
<path d="M196 0H60C26.8629 0 0 26.8629 0 60V196C0 229.137 26.8629 256 60 256H196C229.137 256 256 229.137 256 196V60C256 26.8629 229.137 0 196 0Z" fill="#F4F2ED"/>
<path d="M55.4351 93.0781C51.9734 93.0781 49.0363 94.2853 46.6219 96.6997C44.2075 99.114 43 102.011 43 105.393V157.31C43 160.776 44.2072 163.711 46.6219 166.126C49.0363 168.54 51.9734 169.748 55.4351 169.748C58.8942 169.748 61.8135 168.54 64.1904 166.126C66.5627 163.711 67.752 160.776 67.752 157.31V105.393C67.752 102.011 66.5449 99.114 64.1301 96.6997C61.7154 94.2853 58.8165 93.0781 55.4351 93.0781Z" fill="#A4C639"/>
<path d="M155.409 46.4716L163.981 30.6573C164.544 29.6103 164.344 28.8075 163.379 28.243C162.332 27.7562 161.527 28.0028 160.965 28.9655L152.272 44.9062C144.623 41.5244 136.533 39.8305 128.003 39.8305C119.47 39.8305 111.379 41.5248 103.733 44.9062L95.0404 28.9655C94.4755 28.0028 93.6708 27.7583 92.626 28.243C91.6589 28.81 91.4588 29.6103 92.0237 30.6573L100.597 46.4716C91.9038 50.9047 84.9804 57.0786 79.8291 65.0068C74.6778 72.9394 72.1011 81.608 72.1011 91.0278H183.783C183.783 81.6101 181.205 72.9412 176.055 65.0068C170.903 57.0786 164.019 50.9047 155.409 46.4716ZM105.845 69.4737C104.918 70.403 103.811 70.8654 102.524 70.8654C101.234 70.8654 100.15 70.403 99.2646 69.4737C98.3796 68.5488 97.9371 67.4459 97.9371 66.1544C97.9371 64.8673 98.3796 63.7622 99.2646 62.8351C100.15 61.9102 101.237 61.4478 102.524 61.4478C103.811 61.4478 104.918 61.9102 105.845 62.8351C106.77 63.7644 107.235 64.8673 107.235 66.1544C107.232 67.4437 106.768 68.5488 105.845 69.4737ZM156.736 69.4737C155.849 70.403 154.762 70.8654 153.477 70.8654C152.187 70.8654 151.08 70.403 150.155 69.4737C149.228 68.5488 148.765 67.4459 148.765 66.1544C148.765 64.8673 149.228 63.7622 150.155 62.8351C151.08 61.9102 152.187 61.4478 153.477 61.4478C154.764 61.4478 155.849 61.9102 156.736 62.8351C157.621 63.7644 158.063 64.8673 158.063 66.1544C158.063 67.4437 157.621 68.5488 156.736 69.4737Z" fill="#A4C639"/>
<path d="M72.5806 175.783C72.5806 179.49 73.8677 182.627 76.4422 185.201C79.019 187.776 82.1562 189.063 85.8599 189.063H94.7951L94.9175 216.474C94.9175 219.935 96.1247 222.875 98.5391 225.289C100.953 227.704 103.853 228.911 107.232 228.911C110.691 228.911 113.63 227.704 116.045 225.289C118.46 222.875 119.667 219.936 119.667 216.474V189.066H136.328V216.474C136.328 219.935 137.535 222.875 139.95 225.289C142.365 227.704 145.301 228.911 148.763 228.911C152.223 228.911 155.162 227.704 157.576 225.289C159.991 222.875 161.198 219.936 161.198 216.474V189.066H170.254C173.875 189.066 176.972 187.778 179.551 185.204C182.126 182.629 183.413 179.492 183.413 175.786V95.3701H72.5806V175.783Z" fill="#A4C639"/>
<path d="M200.565 93.0781C197.184 93.0781 194.287 94.2675 191.872 96.6397C189.458 99.0163 188.25 101.936 188.25 105.393V157.31C188.25 160.776 189.457 163.711 191.872 166.126C194.287 168.54 197.186 169.748 200.565 169.748C204.025 169.748 206.964 168.54 209.378 166.126C211.793 163.711 213 160.776 213 157.31V105.393C213 101.935 211.793 99.0163 209.378 96.6397C206.964 94.2675 204.025 93.0781 200.565 93.0781Z" fill="#A4C639"/>
</svg>

<svg xmlns="http://www.w3.org/2000/svg" width="256" height="256" fill="none"><path fill="#F4F2ED" d="M196 0H60C26.863 0 0 26.863 0 60v136c0 33.137 26.863 60 60 60h136c33.137 0 60-26.863 60-60V60c0-33.137-26.863-60-60-60"/><path fill="#A4C639" d="M55.435 93.078q-5.193 0-8.813 3.622Q43 100.32 43 105.393v51.917c0 3.466 1.207 6.401 3.622 8.816q3.62 3.621 8.813 3.622 5.19 0 8.755-3.622c2.373-2.415 3.562-5.35 3.562-8.816v-51.917q0-5.072-3.622-8.693-3.622-3.622-8.695-3.622m99.974-46.606 8.572-15.815q.845-1.57-.602-2.414c-1.047-.487-1.852-.24-2.414.723l-8.693 15.94q-11.474-5.074-24.269-5.075-12.8.002-24.27 5.075l-8.693-15.94c-.565-.963-1.37-1.208-2.414-.723-.967.567-1.167 1.367-.602 2.414l8.573 15.815c-8.693 4.433-15.617 10.607-20.768 18.535-5.151 7.932-7.728 16.601-7.728 26.02h111.682c0-9.417-2.578-18.086-7.728-26.02-5.152-7.928-12.036-14.102-20.646-18.535m-49.564 23.002q-1.39 1.392-3.321 1.391c-1.29 0-2.374-.462-3.26-1.391-.884-.925-1.327-2.028-1.327-3.32q0-1.93 1.328-3.319 1.328-1.387 3.259-1.387t3.321 1.387c.925.93 1.39 2.032 1.39 3.32q-.005 1.932-1.39 3.319m50.891 0q-1.331 1.392-3.259 1.391-1.935.001-3.322-1.391c-.927-.925-1.39-2.028-1.39-3.32q0-1.93 1.39-3.319 1.387-1.387 3.322-1.387 1.93 0 3.259 1.387c.885.93 1.327 2.032 1.327 3.32q0 1.932-1.327 3.319M72.58 175.783q0 5.559 3.862 9.418 3.864 3.862 9.418 3.862h8.935l.123 27.411q0 5.193 3.621 8.815 3.623 3.622 8.693 3.622 5.19 0 8.813-3.622 3.622-3.621 3.622-8.815v-27.408h16.661v27.408q0 5.193 3.622 8.815t8.813 3.622 8.813-3.622q3.622-3.621 3.622-8.815v-27.408h9.056q5.43 0 9.297-3.862 3.862-3.86 3.862-9.418V95.37H72.581zm127.985-82.705q-5.071.002-8.693 3.562-3.622 3.566-3.622 8.753v51.917c0 3.466 1.207 6.401 3.622 8.816q3.623 3.621 8.693 3.622 5.191 0 8.813-3.622c2.415-2.415 3.622-5.35 3.622-8.816v-51.917q0-5.188-3.622-8.753-3.622-3.56-8.813-3.562"/></svg>
